X:1
T:Title
%%score { ( 1 3 ) | ( 2 4 ) }
L:1/8
M:4/4
K:Eb
V:1 treble nm="Grand Piano"
V:3 treble 
V:2 bass 
V:4 bass 
V:1
 z4 z2[Q:1/4=94] EF | GGFE G[GB][Ac][GB] | [EG][EG] [B,DG]>[A,DF] [G,E]2 [B,EG][EGB] | %3
 [Ge][Ge][Ae][Ac] [Ac][GB][EB][EG] | [DF][DF] [FA]>[EG] [DF]2 [DB][DA] | GGGF EEG[FA] | %6
 [GB][GB][GB][Ac] [GB]2 [EG][GB] |[M:3/4] [Ge][Ge] [Ae][Ac] [Ac][GB] |[M:1/4] [Ac][GB] | %9
[M:3/4] [EG][EG] [B,DG]>[A,DF] [G,E]2 |[M:1/4] [B,GB]>[B,FA] |[M:4/4] G4 EEG[GB] | %12
[M:3/4] [Ge]4 [GB]2 |[M:1/4] [Ac][GB] |[M:4/4] [GB]GFE G[GB]ee | d6 cd | e4 z4 | [GB]4 G2 EF | %18
 G[GB]ec BG [DG]>[DF] |[M:3/4] E6 |] %20
V:2
 z4 z2 [E,G,][E,A,E] | [E,B,E][E,B,E][E,A,B,][E,G,B,] [E,B,E][E,E][E,E][E,E] | %2
 B,B, B,,>B,, E,2 E,E, | [E,B,][E,B,][E,C][E,E] [E,E][E,E][G,B,][E,B,] | %4
 [B,,B,][B,,B,] [B,,B,]>[B,,B,] [B,,B,]2 [B,,F,][B,,B,] | %5
 [E,B,E][E,B,E][E,B,E][E,A,B,] [E,G,B,][E,G,B,][E,B,E][E,B,] | %6
 [E,E][E,E][E,E][E,E] [E,E]2 [E,B,][E,B,] |[M:3/4] [E,B,][E,B,] [E,C][E,E] [E,E][E,E] | %8
[M:1/4] [E,E][E,E] |[M:3/4] B,B, B,,>B,, E,2 |[M:1/4] E,>E, | %11
[M:4/4] [E,B,E]4 [E,G,][E,G,][E,B,E][E,B,] |[M:3/4] [E,B,]4 [E,E]2 |[M:1/4] [E,E][E,E] | %14
[M:4/4] [E,B,][E,B,E][E,A,B,][E,G,B,] [E,B,E][E,E][K:treble][=A,CF][A,CF] | [B,F]6 AA | %16
 G4[K:bass] z4 | [E,E]4 [E,B,E]2 [E,G,][E,A,E] | %18
 [E,B,E][E,B,][K:treble][A,CA][A,EA] [B,EG][K:bass][B,E] [B,,B,]>[B,,A,] |[M:3/4] [E,G,]6 |] %20
V:3
 x8 | x8 | x8 | x8 | x8 | x8 | x8 |[M:3/4] x6 |[M:1/4] x2 |[M:3/4] x6 |[M:1/4] x2 |[M:4/4] x8 | %12
[M:3/4] x6 |[M:1/4] x2 |[M:4/4] x8 | x8 | z2 B,B, [GB]2 [Ad][Ac] | x8 | x8 |[M:3/4] x6 |] %20
V:4
 x8 | x8 | x8 | x8 | x8 | x8 | x8 |[M:3/4] x6 |[M:1/4] x2 |[M:3/4] x6 |[M:1/4] x2 |[M:4/4] x8 | %12
[M:3/4] x6 |[M:1/4] x2 |[M:4/4] x6[K:treble] x2 | x8 | z2[K:bass] E,E, [E,E][E,E][E,E][E,E] | x8 | %18
 x2[K:treble] x3[K:bass] x3 |[M:3/4] x6 |] %20

